.local/share/icons/Gruvbox-Plus-Dark/panel/16/copyq-normal.svg

<svg width="16" height="16" version="1.1" xmlns="http://www.w3.org/2000/svg">
  <defs>
    <style id="current-color-scheme" type="text/css">.ColorScheme-Text { color:#ebdbb2; } .ColorScheme-Highlight { color:#458588; } .ColorScheme-NeutralText { color:#fe8019; } .ColorScheme-PositiveText { color:#689d6a; } .ColorScheme-NegativeText { color:#fb4934; }</style>
  </defs>
  <path class="ColorScheme-Text" d="m3.5 1c-1.933 0-3.5 1.567-3.5 3.5s1.567 3.5 3.5 3.5c0.5282 0 1.028-0.1206 1.477-0.3301l1.523 1.83-5.5 6.5 7-5 7 5-5.5-6.5 1.521-1.83c0.4495 0.21 0.9497 0.3301 1.479 0.3301 1.933 0 3.5-1.567 3.5-3.5s-1.567-3.5-3.5-3.5-3.5 1.567-3.5 3.5c0 0.5716 0.1398 1.109 0.3828 1.586l-1.381 1.914-1.383-1.912c-0.01675-0.01675 0.3809-0.6175 0.3809-1.588 0-1.933-1.567-3.5-3.5-3.5zm0 2c0.8284 0 1.5 0.6716 1.5 1.5s-0.6716 1.5-1.5 1.5-1.5-0.6716-1.5-1.5 0.6716-1.5 1.5-1.5zm9 0c0.8284 0 1.5 0.6716 1.5 1.5s-0.6716 1.5-1.5 1.5-1.5-0.6716-1.5-1.5 0.6716-1.5 1.5-1.5z" fill="currentColor"/>
</svg>

<svg xmlns="http://www.w3.org/2000/svg" width="16" height="16" version="1.1">
 <defs>
  <style id="current-color-scheme" type="text/css">
   .ColorScheme-Text { color:#ebdbb2; } .ColorScheme-Highlight { color:#458588; }
  </style>
 </defs>
 <path style="fill:currentColor" class="ColorScheme-Text" d="M 3.5,1 A 3.5,3.5 0 0 0 0,4.5 3.5,3.5 0 0 0 3.5,8 3.5,3.5 0 0 0 4.9766,7.67 L 6.5,9.5 1,16 8,11 15,16 9.5,9.5 11.023,7.668 A 3.5,3.5 0 0 0 12.5,8 3.5,3.5 0 0 0 16,4.5 3.5,3.5 0 0 0 15.998,4.4746 C 15.998,4.4549 15.997,4.4357 15.996,4.416 A 3.5,3.5 0 0 0 15.951,3.9453 C 15.933,3.8258 15.905,3.7092 15.875,3.5918 A 3.5,3.5 0 0 0 15.816,3.3867 C 15.753,3.1921 15.67,3.0053 15.572,2.8223 15.418,2.5342 15.237,2.2571 14.996,2.0137 14.46,1.4729 13.791,1.159 13.096,1.0508 A 3.5,3.5 0 0 0 13.069,1.0469 3.5,3.5 0 0 0 12.608,1.0039 C 12.596,1.0038 12.584,1 12.572,1 12.566,1 12.56,1.0019 12.555,1.002 A 3.5,3.5 0 0 0 12.501,1 3.5,3.5 0 0 0 9.001,4.5 3.5,3.5 0 0 0 9.384,6.084 L 8.001,8 6.6196,6.0879 A 3.5,3.5 0 0 0 7.001,4.5 3.5,3.5 0 0 0 3.5005,1 Z M 3.5,3 A 1.5,1.5 0 0 1 5,4.5 1.5,1.5 0 0 1 3.5,6 1.5,1.5 0 0 1 2,4.5 1.5,1.5 0 0 1 3.5,3 Z M 12.5,3 A 1.5,1.5 0 0 1 14,4.5 1.5,1.5 0 0 1 12.5,6 1.5,1.5 0 0 1 11,4.5 1.5,1.5 0 0 1 12.5,3 Z"/>
</svg>
